flaticon/transportation/car-2.svg

<svg xmlns="http://www.w3.org/2000/svg" width="32" height="32" viewBox="0 0 24 24">
    <path d="M 21.683594 9.5 L 24 8.011719 L 23.4375 7.136719 L 21.085938 8.644531 L 18.59375 2.265625 L 5.40625 2.265625 L 2.914062 8.644531 L 0.5625 7.136719 L 0 8.011719 L 2.316406 9.5 C 1.375 9.929688 0.714844 10.882812 0.714844 11.984375 L 0.714844 15.644531 C 0.714844 16.976562 1.675781 18.085938 2.941406 18.324219 L 2.941406 19.234375 C 2.941406 20.613281 4.0625 21.734375 5.441406 21.734375 C 6.824219 21.734375 7.945312 20.613281 7.945312 19.234375 L 7.945312 18.371094 L 16.054688 18.371094 L 16.054688 19.234375 C 16.054688 20.613281 17.175781 21.734375 18.558594 21.734375 C 19.9375 21.734375 21.058594 20.613281 21.058594 19.234375 L 21.058594 18.324219 C 21.871094 18.175781 22.578125 17.664062 22.972656 16.914062 C 23.175781 16.527344 23.285156 16.085938 23.285156 15.644531 L 23.285156 11.984375 C 23.285156 10.882812 22.625 9.929688 21.683594 9.5 Z M 6.117188 3.304688 L 11.480469 3.304688 L 11.480469 5.316406 L 12.519531 5.316406 L 12.519531 3.304688 L 17.882812 3.304688 L 20.207031 9.257812 L 3.792969 9.257812 Z M 6.902344 19.234375 C 6.902344 20.039062 6.25 20.695312 5.441406 20.695312 C 4.636719 20.695312 3.980469 20.039062 3.980469 19.234375 L 3.980469 18.371094 L 6.902344 18.371094 Z M 18.558594 20.695312 C 17.75 20.695312 17.097656 20.039062 17.097656 19.234375 L 17.097656 18.371094 L 20.015625 18.371094 L 20.015625 19.234375 C 20.015625 20.039062 19.363281 20.695312 18.558594 20.695312 Z M 22.242188 15.644531 C 22.242188 15.921875 22.179688 16.183594 22.050781 16.429688 C 21.757812 16.984375 21.183594 17.332031 20.554688 17.332031 L 3.445312 17.332031 C 2.511719 17.332031 1.757812 16.574219 1.757812 15.644531 L 1.757812 11.984375 C 1.757812 11.054688 2.511719 10.296875 3.445312 10.296875 L 20.554688 10.296875 C 21.484375 10.296875 22.242188 11.054688 22.242188 11.984375 Z M 22.242188 15.644531"/>
    <path d="M18.960938 11.953125C17.804688 11.953125 16.863281 12.894531 16.863281 14.050781 16.863281 14.894531 17.367188 15.652344 18.144531 15.984375 18.402344 16.09375 18.675781 16.148438 18.960938 16.148438 19.714844 16.148438 20.417969 15.738281 20.789062 15.082031 20.964844 14.765625 21.058594 14.410156 21.058594 14.050781 21.058594 12.894531 20.117188 11.953125 18.960938 11.953125zM19.882812 14.566406C19.625 15.023438 19.023438 15.222656 18.550781 15.023438 18.160156 14.859375 17.90625 14.476562 17.90625 14.050781 17.90625 13.46875 18.378906 12.992188 18.960938 12.992188 19.542969 12.992188 20.015625 13.46875 20.015625 14.050781 20.015625 14.230469 19.96875 14.410156 19.882812 14.566406zM5.039062 11.953125C3.882812 11.953125 2.941406 12.894531 2.941406 14.050781 2.941406 15.207031 3.882812 16.148438 5.039062 16.148438 6.195312 16.148438 7.136719 15.207031 7.136719 14.050781 7.136719 12.894531 6.195312 11.953125 5.039062 11.953125zM5.039062 15.105469C4.457031 15.105469 3.980469 14.632812 3.980469 14.050781 3.980469 13.46875 4.457031 12.992188 5.039062 12.992188 5.621094 12.992188 6.09375 13.46875 6.09375 14.050781 6.09375 14.632812 5.621094 15.105469 5.039062 15.105469zM10.097656 13.53125L13.902344 13.53125 13.902344 14.570312 10.097656 14.570312zM10.097656 13.53125"/>
</svg>

<svg xmlns="http://www.w3.org/2000/svg" width="32" height="32" viewBox="0 0 24 24">
    <path d="M21.684 9.5L24 8.012l-.563-.875-2.351 1.508-2.492-6.38H5.406l-2.492 6.38L.562 7.137 0 8.012 2.316 9.5a2.737 2.737 0 0 0-1.601 2.484v3.66c0 1.333.96 2.442 2.226 2.68v.91a2.502 2.502 0 0 0 5.004 0v-.863h8.11v.863a2.503 2.503 0 0 0 5.004 0v-.91a2.71 2.71 0 0 0 1.914-1.41c.203-.387.312-.828.312-1.27v-3.66c0-1.101-.66-2.054-1.601-2.484zM6.117 3.305h5.363v2.011h1.04V3.305h5.363l2.324 5.953H3.793zm.785 15.93a1.461 1.461 0 0 1-2.922 0v-.864h2.922zm11.657 1.46c-.809 0-1.461-.656-1.461-1.46v-.864h2.918v.863a1.46 1.46 0 0 1-1.457 1.461zm3.683-5.05c0 .277-.062.539-.191.785a1.69 1.69 0 0 1-1.496.902H3.445a1.688 1.688 0 0 1-1.687-1.687v-3.66c0-.93.754-1.688 1.687-1.688h17.11c.93 0 1.687.758 1.687 1.687zm0 0"/>
    <path d="M18.96 11.953a2.1 2.1 0 0 0-2.097 2.098c0 .844.504 1.601 1.282 1.933a2.108 2.108 0 0 0 2.645-.902 2.1 2.1 0 0 0-1.828-3.129zm.923 2.613c-.258.457-.86.657-1.332.457a1.059 1.059 0 0 1 .41-2.031 1.059 1.059 0 0 1 .922 1.574zm0 0M5.04 11.953a2.1 2.1 0 0 0-2.099 2.098 2.1 2.1 0 0 0 2.098 2.097 2.1 2.1 0 0 0 2.098-2.097 2.1 2.1 0 0 0-2.098-2.098zm0 3.152a1.059 1.059 0 0 1-1.06-1.054c0-.582.477-1.059 1.06-1.059.581 0 1.054.477 1.054 1.059s-.473 1.054-1.055 1.054zm0 0M10.098 13.531h3.804v1.04h-3.804zm0 0"/>
</svg>
